src/lib/packages/icons/src/assets/filled/kaaba.svg

<svg width="24" height="24" viewBox="0 0 24 24" fill="none" xmlns="http://www.w3.org/2000/svg">
<path d="M11.6 8.31015L3.20496 11.1121C3.08296 11.1531 3 11.2681 3 11.3961V13.0501L4.58997 12.5201C4.97997 12.3901 5.41004 12.6101 5.54004 12.9901C5.60004 13.1801 5.59 13.3801 5.5 13.5601C5.41 13.7401 5.26006 13.88 5.06006 13.94L3.20496 14.5621C3.08296 14.6031 3 14.718 3 14.846V16.67C3 17.53 3.55 18.2901 4.37 18.5601L11.37 20.9C11.78 21.03 12.22 21.03 12.63 20.9L19.63 18.5601C20.45 18.2901 21 17.53 21 16.67V14.847C21 14.718 20.9169 14.6031 20.7939 14.5621L18.86 13.92C18.47 13.79 18.26 13.3601 18.39 12.9701C18.52 12.5801 18.96 12.3601 19.34 12.4901L20.606 12.909C20.8 12.973 21 12.8291 21 12.6241V11.3951C21 11.2661 20.917 11.1512 20.795 11.1112L12.4 8.30917C12.14 8.23017 11.86 8.23015 11.6 8.31015ZM6.95996 13.3101C6.88996 13.3301 6.80998 13.3502 6.72998 13.3502C6.39998 13.3502 6.12001 13.1402 6.01001 12.8302C5.95001 12.6402 5.96005 12.4401 6.05005 12.2601C6.14005 12.0801 6.29999 11.95 6.48999 11.88C6.86999 11.76 7.30994 11.9702 7.43994 12.3602C7.56994 12.7502 7.35996 13.1801 6.95996 13.3101ZM15.54 12.0201C15.67 11.6401 16.1 11.4201 16.49 11.5401C16.89 11.6801 17.1 12.1001 16.97 12.4901C16.86 12.8001 16.58 13.0101 16.25 13.0101C16.17 13.0101 16.09 12.9901 16.02 12.9701C15.83 12.9001 15.67 12.7702 15.58 12.5902C15.49 12.4102 15.48 12.2101 15.54 12.0201ZM14.59 10.91H14.6C14.79 10.98 14.94 11.1101 15.03 11.2901C15.12 11.4701 15.1299 11.6702 15.0699 11.8602C14.9399 12.2402 14.51 12.4602 14.12 12.3402L12.39 11.7601C12.18 11.6901 11.93 11.6701 11.7 11.7301C11.7 11.7301 11.68 11.7401 11.67 11.7401C11.65 11.7501 11.63 11.7501 11.61 11.7601L9.81006 12.3602C9.73006 12.3802 9.64995 12.4 9.56995 12.4C9.24995 12.4 8.95999 12.19 8.85999 11.88C8.79999 11.69 8.81002 11.4901 8.90002 11.3101C8.99002 11.1301 9.13996 11 9.32996 10.93L11.13 10.3402C11.18 10.3202 11.22 10.3101 11.27 10.2901C11.77 10.1501 12.35 10.1602 12.87 10.3402L14.59 10.91ZM21 7.33017V9.18417C21 9.38917 20.799 9.53311 20.605 9.46811L12.87 6.88998C12.305 6.70198 11.695 6.70198 11.13 6.88998L3.39502 9.46811C3.20102 9.53311 3 9.38817 3 9.18417V7.33017C3 6.47017 3.55 5.71003 4.37 5.44003L11.37 3.10019C11.78 2.97019 12.22 2.97019 12.63 3.10019L19.63 5.44003C20.45 5.71003 21 6.47017 21 7.33017Z" fill="currentColor"/>
</svg>

<svg xmlns="http://www.w3.org/2000/svg" width="24" height="24" fill="none"><path fill="currentColor" d="m11.6 8.31-8.395 2.802a.301.301 0 0 0-.205.284v1.654l1.59-.53c.39-.13.82.09.95.47a.752.752 0 0 1-.48.95l-1.855.622a.3.3 0 0 0-.205.284v1.824c0 .86.55 1.62 1.37 1.89l7 2.34c.41.13.85.13 1.26 0l7-2.34c.82-.27 1.37-1.03 1.37-1.89v-1.823a.3.3 0 0 0-.206-.285l-1.934-.642a.753.753 0 0 1 .48-1.43l1.266.419a.3.3 0 0 0 .394-.285v-1.229a.299.299 0 0 0-.205-.284L12.4 8.31a1.372 1.372 0 0 0-.8.001Zm-4.64 5c-.07.02-.15.04-.23.04-.33 0-.61-.21-.72-.52a.752.752 0 0 1 .04-.57c.09-.18.25-.31.44-.38.38-.12.82.09.95.48a.75.75 0 0 1-.48.95Zm8.58-1.29c.13-.38.56-.6.95-.48.4.14.61.56.48.95-.11.31-.39.52-.72.52-.08 0-.16-.02-.23-.04a.786.786 0 0 1-.44-.38.752.752 0 0 1-.04-.57Zm-.95-1.11h.01a.752.752 0 0 1 .47.95c-.13.38-.56.6-.95.48l-1.73-.58a1.24 1.24 0 0 0-.69-.03s-.02.01-.03.01c-.02.01-.04.01-.06.02l-1.8.6c-.08.02-.16.04-.24.04a.75.75 0 0 1-.71-.52.752.752 0 0 1 .47-.95l1.8-.59c.05-.02.09-.03.14-.05.5-.14 1.08-.13 1.6.05l1.72.57ZM21 7.33v1.854a.3.3 0 0 1-.395.284L12.87 6.89a2.755 2.755 0 0 0-1.74 0L3.395 9.468A.3.3 0 0 1 3 9.184V7.33c0-.86.55-1.62 1.37-1.89l7-2.34c.41-.13.85-.13 1.26 0l7 2.34c.82.27 1.37 1.03 1.37 1.89Z"/></svg>
